svg/fluentui-system-icons/ic_fluent_select_all_on_20_regular.svg

<svg width="20" height="20" viewBox="0 0 20 20" fill="none" xmlns="http://www.w3.org/2000/svg">
<path d="M2 4C2 2.89543 2.89543 2 4 2H14C15.1046 2 16 2.89543 16 4V14C16 15.1046 15.1046 16 14 16H4C2.89543 16 2 15.1046 2 14V4ZM4 3C3.44772 3 3 3.44772 3 4V14C3 14.5523 3.44772 15 4 15H14C14.5523 15 15 14.5523 15 14V4C15 3.44772 14.5523 3 14 3H4ZM6.00001 18C5.25973 18 4.61339 17.5978 4.26758 17H14C15.6569 17 17 15.6569 17 14V4.26758C17.5978 4.61339 18 5.25973 18 6.00001V14C18 16.2092 16.2092 18 14 18H6.00001ZM12.3763 7.32925C12.5581 7.12143 12.5371 6.80555 12.3293 6.62371C12.1214 6.44187 11.8056 6.46293 11.6237 6.67075L8.47565 10.2685L6.85355 8.64645C6.65829 8.45118 6.34171 8.45118 6.14645 8.64645C5.95118 8.84171 5.95118 9.15829 6.14645 9.35355L8.14645 11.3536C8.2443 11.4514 8.37833 11.5043 8.51664 11.4997C8.65495 11.4951 8.78516 11.4334 8.87629 11.3293L12.3763 7.32925Z" fill="#212121"/>
</svg>

<svg xmlns="http://www.w3.org/2000/svg" width="20" height="20"><path d="M2 4a2 2 0 0 1 2-2h10a2 2 0 0 1 2 2v10a2 2 0 0 1-2 2H4a2 2 0 0 1-2-2V4Zm2-1a1 1 0 0 0-1 1v10a1 1 0 0 0 1 1h10a1 1 0 0 0 1-1V4a1 1 0 0 0-1-1H4Zm2 15a2 2 0 0 1-1.732-1H14a3 3 0 0 0 3-3V4.268A2 2 0 0 1 18 6v8a4 4 0 0 1-4 4H6Zm6.376-10.67a.5.5 0 0 0-.752-.66l-3.148 3.598-1.622-1.622a.5.5 0 1 0-.708.708l2 2a.5.5 0 0 0 .73-.025l3.5-4Z"/></svg>
